img/advantages/5.svg

<svg width="50" height="50" viewBox="0 0 50 50" fill="none" xmlns="http://www.w3.org/2000/svg">
<g clip-path="url(#clip0_313_2441)">
<path d="M29.1247 20.4741C29.8194 20.3876 30.3158 20.1985 31.0339 19.8485C32.1375 19.3094 33.8789 18.5079 34.591 20.0764C34.5994 20.0952 34.6126 20.1116 34.6292 20.1239C34.6458 20.1362 34.6653 20.1441 34.6858 20.1467C34.7063 20.1494 34.7271 20.1467 34.7463 20.1391C34.7655 20.1314 34.7824 20.1189 34.7954 20.1028C35.2925 19.4864 35.5949 18.7951 35.7027 18.0288C35.9234 16.4583 36.8836 15.9721 38.1927 15.3557C38.9922 14.9804 39.8314 14.426 40.4 13.8188C40.5709 13.6367 40.6065 13.3265 40.6167 13.0305C40.635 12.4832 40.7747 11.9692 41.0357 11.4884C41.0827 11.4018 41.0933 11.2997 41.0652 11.2047C40.9269 10.7327 40.758 10.1621 40.8292 9.70332C41.0184 8.46847 42.4679 8.47966 43.4261 8.75735C44.7809 9.14896 44.7952 10.2628 44.6975 11.4518C44.6952 11.4822 44.7031 11.5125 44.7201 11.5378C44.7371 11.5631 44.7621 11.5819 44.7911 11.5912C47.2537 12.3673 47.0136 14.1544 46.7207 16.2549C46.5386 17.5599 46.3209 19.5871 47.7073 20.3693C48.873 21.0264 49.6033 22.3996 49.9115 23.6507C50.3693 25.5142 48.9198 25.742 47.7012 24.85C46.819 24.2044 46.1097 23.3974 45.5733 22.4291C45.495 22.2877 44.8552 21.0946 44.7779 21.0976C44.7683 21.0979 44.7592 21.1038 44.7526 21.1141C44.7459 21.1244 44.7422 21.1382 44.7423 21.1526C44.7433 22.0039 44.5683 22.719 44.1788 23.4707C43.9265 23.9579 43.7261 24.437 43.7271 24.9832C43.7271 25.188 43.7092 25.3721 43.6732 25.5355C43.5437 26.1275 43.5278 26.7246 43.6254 27.3268C43.6593 27.5336 43.7807 27.6485 43.9896 27.6716C44.7514 27.756 45.7228 27.1813 46.028 28.2137C46.3467 29.2912 46.6132 30.0911 46.8275 30.6132C47.6463 32.6109 47.4093 34.6026 46.7909 36.6847C46.5142 37.6185 45.439 38.0945 44.6365 37.4913C43.9611 36.9838 43.8665 35.9422 43.9987 35.1569C44.1839 34.0696 42.6011 34.1418 41.9542 34.0889C41.2208 34.0299 40.9747 33.6759 40.5536 33.1561C40.4573 33.0375 40.3335 32.9683 40.1823 32.9486C39.9321 32.9168 39.7192 32.9188 39.5435 32.9548C39.3408 32.9975 39.2303 33.1219 39.2119 33.328C39.1296 34.2567 39.2577 35.6472 38.2161 36.0988C38.1829 36.1137 37.9595 36.1697 37.5458 36.2666C36.4432 36.525 35.9733 37.5076 34.715 37.2655C34.2299 37.1729 33.8077 37.0906 33.3154 37.2553C32.2972 37.5951 31.6463 37.8097 30.6789 37.1994C30.4735 37.0702 30.1469 37.0031 29.9293 37.1078C29.0952 37.5096 28.5764 37.829 27.7871 37.5798C27.7718 37.575 27.7557 37.5735 27.7399 37.5755C27.7241 37.5774 27.709 37.5827 27.6956 37.591C25.6389 38.8787 22.2415 39.2225 20.5154 37.1882C20.1777 36.7905 19.8685 36.1843 19.547 35.6838C19.4263 35.496 19.2544 35.4065 19.0313 35.4153C18.7384 35.4275 18.3865 35.4773 18.1047 35.3787C17.5625 35.1895 17.3093 34.5639 17.0835 34.0909C17.065 34.052 17.0364 34.0186 17.0007 33.9941C16.965 33.9696 16.9233 33.955 16.88 33.9516C16.0202 33.8817 15.2363 33.5864 14.5283 33.0656C14.5168 33.057 14.5028 33.0523 14.4882 33.0521C14.4736 33.0519 14.4592 33.0563 14.447 33.0646L13.4888 33.7258C13.461 33.7449 13.4404 33.7716 13.4298 33.802C13.1419 34.6005 12.8236 35.458 11.9447 35.3878C11.1269 35.3217 10.3366 34.2638 9.91447 33.6444C9.78834 33.4606 9.65204 33.3155 9.50556 33.209C8.51179 32.4869 7.48954 32.2905 6.75616 33.4786C6.06042 34.6056 5.68203 35.9025 5.21312 37.1882C5.05512 37.6222 4.89339 37.9199 4.72793 38.0813C2.96314 39.8054 0.679601 33.9302 0.251374 32.9191C-0.474884 31.2103 0.411069 29.9368 2.2613 30.0233C2.38268 30.0287 2.4627 29.9738 2.50135 29.8585C2.75157 29.1099 2.35182 27.8109 2.28978 27.1722C2.06092 24.8113 2.63765 21.5554 5.23651 20.6623C5.71763 20.4965 6.35235 20.4344 6.81719 20.2463C8.13646 19.7102 8.81389 18.5405 9.68459 17.6118C11.2836 15.905 14.091 18.6869 13.1714 20.4731C12.728 21.3346 11.5847 21.5279 10.7587 21.0885C10.7469 21.0822 10.7339 21.0786 10.7207 21.078C10.7074 21.0773 10.6942 21.0797 10.6821 21.0848C10.6701 21.0899 10.6594 21.0976 10.651 21.1074C10.6426 21.1172 10.6366 21.1288 10.6336 21.1414L10.5065 21.6693C10.4671 21.8313 10.5336 21.9005 10.7058 21.8768C11.9196 21.7127 13.1223 21.5282 14.3137 21.3234C15.4143 21.1342 16.7875 21.1505 17.7029 22.0527C17.9582 22.303 18.1454 22.3793 18.4851 22.363C20.2418 22.2826 20.493 21.9704 21.502 20.5555C21.6112 20.4022 21.7418 20.2703 21.8936 20.1598C22.3483 19.8302 22.9128 19.8414 23.2251 20.347C23.9371 21.4974 23.4286 22.7251 22.507 23.5704C22.4936 23.5829 22.4827 23.5969 22.4752 23.6116C22.4677 23.6263 22.4636 23.6414 22.4633 23.6558L22.4521 24.0718C22.448 24.2197 22.5226 24.2756 22.6758 24.2397C22.92 24.1817 22.8671 23.9945 22.8915 23.8084C22.9759 23.1604 23.3218 22.6986 23.7917 22.2725C23.8035 22.2616 23.8129 22.2484 23.8192 22.2338C23.8255 22.2193 23.8286 22.2037 23.8283 22.188C23.7947 21.0691 23.6422 20.1496 25.0021 19.8221C25.0346 19.8142 25.0637 19.7968 25.0855 19.7723C25.7619 19.0206 26.0101 18.7093 27.0283 18.4225C27.541 18.2787 28.0414 18.099 28.5297 17.8834C28.6992 17.8088 28.866 17.8108 29.0301 17.8895C30.3626 18.5313 29.7502 19.5922 29.0911 20.4141C29.0525 20.4616 29.0637 20.4816 29.1247 20.4741ZM18.0833 23.5551C16.9878 23.4737 16.7803 22.4169 15.5842 22.4596C14.1306 22.5115 12.7117 22.8553 11.2714 23.0221C10.0874 23.1594 9.11396 22.8878 9.31027 21.4313C9.41911 20.6236 9.78427 19.8028 10.7424 19.8424C11.133 19.8577 11.4372 20.1456 11.8115 20.0977C12.8388 19.9655 11.2266 17.624 10.4973 18.5018C9.30823 19.933 8.43042 21.1637 6.49068 21.6062C5.5203 21.8269 4.86728 22.0141 4.29055 22.9163C3.33441 24.4095 3.31101 26.5151 3.67516 28.2259C3.8908 29.235 3.95793 30.597 2.86041 31.1249C2.24095 31.4219 0.743683 30.9357 1.31635 32.2855C2.07414 34.0706 2.70478 35.6482 3.80637 36.999C3.89385 37.1055 3.95861 37.0933 4.00065 36.9624C4.34446 35.8964 4.74013 34.8131 5.1887 33.7858C6.24452 31.368 8.2158 30.6142 10.3986 32.3597C10.5614 32.4899 10.7353 32.6855 10.9204 32.9466C11.208 33.3514 11.5267 33.7312 11.8766 34.0858C11.8862 34.0955 11.8981 34.1026 11.9111 34.1066C11.9242 34.1106 11.938 34.1114 11.9513 34.1087C11.9646 34.1061 11.977 34.1002 11.9874 34.0916C11.9978 34.083 12.0059 34.0719 12.0108 34.0594C12.2997 33.3565 12.3903 32.9812 13.0728 32.5265C13.9801 31.9223 14.2964 31.5226 15.3919 32.1837C15.7896 32.4238 16.1192 32.5926 16.6023 32.674C17.766 32.8724 17.9755 33.1053 18.4922 34.1774C18.4984 34.1905 18.5087 34.2013 18.5216 34.2081C18.5344 34.2148 18.5491 34.2173 18.5634 34.215C20.5662 33.9221 20.5744 35.5516 21.6027 36.581C22.9301 37.9094 25.6134 37.4598 27.0822 36.5301C27.4392 36.3033 27.8593 36.3511 28.3496 36.4508C28.382 36.4574 28.4158 36.4538 28.4462 36.4406C29.5285 35.9869 30.2497 35.4875 31.3716 36.1771C31.8802 36.4894 32.1579 36.3806 32.7377 36.1649C33.4304 35.9066 34.0813 35.873 34.8005 36.0561C35.0609 36.1222 35.3589 36.1059 35.544 35.9422C36.1394 35.418 36.8172 35.1132 37.5774 35.0277C37.7733 35.006 37.8778 34.8972 37.8906 34.7012C37.9679 33.5406 37.8215 32.0779 39.2872 31.7647C40.1264 31.5856 41.0907 31.7901 41.5636 32.4451C41.7094 32.6465 41.8434 32.7879 41.9654 32.8693C41.9912 32.8865 42.0239 32.8954 42.059 32.8947C43.1687 32.8663 44.6711 33.0809 45.1024 34.3066C45.2753 34.7948 45.2 35.4834 45.1786 36.0469C45.1725 36.2226 45.2156 36.3592 45.3078 36.4569C45.4502 36.6074 45.5652 36.5209 45.614 36.3582C46.0056 35.043 46.2772 33.6088 46.0432 32.2427C45.9924 31.9437 45.8625 31.5263 45.6537 30.9906C45.3865 30.305 45.1508 29.6062 44.9467 28.8942C44.9427 28.8806 44.9341 28.8688 44.9223 28.861C44.9106 28.8531 44.8965 28.8498 44.8827 28.8515C43.717 28.998 42.6673 28.8098 42.4231 27.4926C42.2977 26.8144 42.3075 26.1272 42.4526 25.4308C42.4899 25.2545 42.5096 25.0554 42.5116 24.8337C42.5177 24.1796 42.7863 23.4992 43.0955 22.9153C43.4576 22.2297 43.5532 21.5482 43.5491 20.7884C43.5451 20.1334 43.8767 19.3196 44.668 19.521C45.6872 19.7804 46.2558 21.1576 46.7227 21.9683C47.2069 22.8085 47.8531 23.4948 48.6614 24.0271C48.7428 24.0806 48.772 24.0603 48.7489 23.966C48.5672 23.2228 48.2305 22.5505 47.7389 21.949C47.4256 21.5645 46.9261 21.3845 46.6159 21.1119C44.9406 19.641 45.3597 17.1368 45.6384 15.2092C45.7239 14.6234 45.791 13.774 45.3984 13.301C44.9732 12.7894 44.1656 12.8413 43.7607 12.2981C43.3966 11.8099 43.5013 10.9392 43.5064 10.3614C43.5085 10.1587 43.4135 10.0241 43.2216 9.95761C42.9192 9.8525 42.5703 9.81317 42.175 9.83962C42.0407 9.84843 41.9908 9.91794 42.0254 10.0481C42.1 10.3282 42.1688 10.6025 42.2319 10.871C42.4404 11.7468 41.8993 12.1699 41.8525 12.9593C41.8078 13.715 41.6796 14.2806 41.1476 14.7953C40.2525 15.6609 39.2933 16.1562 38.1826 16.7279C37.4645 17.0981 37.0545 17.3026 36.9131 18.1702C36.8643 18.4727 36.8009 18.7707 36.7229 19.0643C36.4534 20.0815 35.1911 22.2155 33.88 21.1678C33.6653 20.9959 33.5331 20.6928 33.3856 20.4477C33.3773 20.4336 33.3662 20.4215 33.353 20.4122C33.3398 20.4029 33.3249 20.3966 33.3093 20.3937C32.6207 20.2605 31.2455 21.1515 30.5508 21.3906C29.8581 21.6296 27.7942 22.1657 27.6213 20.9623C27.542 20.4039 28.0353 19.7346 28.4147 19.3237C28.4225 19.3152 28.4269 19.305 28.4269 19.2952V19.2789C28.4269 19.2751 28.4259 19.2714 28.4239 19.2682C28.4219 19.2649 28.419 19.2621 28.4155 19.2601C28.412 19.2581 28.408 19.257 28.4038 19.2567C28.3996 19.2564 28.3953 19.2571 28.3913 19.2586C27.6895 19.5292 26.775 19.581 26.3163 20.2279C26.0145 20.6524 25.6087 20.9373 25.0987 21.0824C25.0843 21.0865 25.0715 21.0949 25.0624 21.1065C25.0532 21.118 25.0481 21.132 25.0479 21.1465C25.0326 22.0385 25.1994 22.8349 24.3481 23.4259C24.1996 23.529 24.1243 23.6707 24.1223 23.8511C24.0968 25.9393 21.1674 26.0899 21.2294 23.7901C21.2437 23.2733 21.3301 23.018 21.7126 22.6437C21.8092 22.5501 22.5385 21.6388 22.331 21.5381C22.3201 21.5324 22.3062 21.5332 22.292 21.5401C22.2779 21.5471 22.2646 21.5598 22.2547 21.5757C21.2386 23.2296 19.9702 23.6955 18.0833 23.5551Z" fill="white" fill-opacity="0.6"/>
<circle cx="3.64127" cy="32.4656" r="0.52079" fill="#F3C469"/>
<circle cx="10.9323" cy="30.3824" r="0.52079" fill="#F3C469"/>
<circle cx="11.9746" cy="26.2161" r="0.52079" fill="#F3C469"/>
<circle cx="20.3062" cy="31.4239" r="0.52079" fill="#F3C469"/>
<circle cx="22.1297" cy="30.122" r="0.260395" fill="#F3C469"/>
<circle cx="25.2539" cy="33.2467" r="0.260395" fill="#F3C469"/>
<circle cx="32.5449" cy="35.3299" r="0.260395" fill="#F3C469"/>
<circle cx="30.4621" cy="25.9557" r="0.260395" fill="#F3C469"/>
<circle cx="12.7548" cy="28.0388" r="0.260395" fill="#F3C469"/>
<circle cx="5.46474" cy="22.831" r="0.260395" fill="#F3C469"/>
<circle cx="19.2657" cy="25.1745" r="0.52079" fill="#F3C469"/>
<circle cx="26.5567" cy="25.1745" r="0.52079" fill="#F3C469"/>
<circle cx="28.6396" cy="24.1329" r="0.52079" fill="#F3C469"/>
<circle cx="38.0135" cy="25.1745" r="0.52079" fill="#F3C469"/>
<circle cx="34.8882" cy="29.3408" r="0.52079" fill="#F3C469"/>
<circle cx="36.9721" cy="32.4656" r="0.52079" fill="#F3C469"/>
<circle cx="44.2631" cy="31.4239" r="0.52079" fill="#F3C469"/>
<circle cx="26.5567" cy="32.4656" r="0.52079" fill="#F3C469"/>
<circle cx="33.3261" cy="30.9032" r="1.04158" fill="#F3C469"/>
<circle cx="40.0964" cy="19.9665" r="0.52079" fill="#F3C469"/>
<circle cx="42.1802" cy="18.925" r="0.52079" fill="#F3C469"/>
<circle cx="40.6171" cy="25.6953" r="1.04158" fill="#F3C469"/>
<circle cx="10.9323" cy="18.925" r="0.52079" fill="#F3C469"/>
<circle cx="8.8496" cy="26.2161" r="1.56237" fill="#F3C469"/>
</g>
<defs>
<clipPath id="clip0_313_2441">
<rect width="50" height="50" fill="white"/>
</clipPath>
</defs>
</svg>

<svg width="50" height="50" viewBox="0 0 50 50" fill="none" xmlns="http://www.w3.org/2000/svg"><g clip-path="url(#clip0_313_2441)"><path d="M29.125 20.474c.694-.086 1.19-.276 1.909-.625 1.104-.54 2.845-1.341 3.557.227a.12.12 0 00.155.063.121.121 0 00.05-.036 4.192 4.192 0 00.907-2.074c.22-1.57 1.18-2.057 2.49-2.673.8-.376 1.638-.93 2.207-1.537.17-.182.206-.493.217-.789a3.43 3.43 0 01.419-1.542.373.373 0 00.03-.283c-.14-.472-.308-1.043-.237-1.502.19-1.235 1.639-1.223 2.597-.946 1.355.392 1.37 1.506 1.271 2.695a.136.136 0 00.094.14c2.463.775 2.223 2.562 1.93 4.663-.182 1.305-.4 3.332.986 4.114 1.166.657 1.896 2.03 2.204 3.282.458 1.863-.991 2.091-2.21 1.199a7.413 7.413 0 01-2.128-2.42c-.078-.142-.718-1.335-.795-1.332-.01 0-.019.006-.025.016a.07.07 0 00-.01.039 4.783 4.783 0 01-.564 2.318c-.253.487-.453.966-.452 1.512 0 .205-.018.39-.054.552a4.752 4.752 0 00-.048 1.792c.034.207.156.321.365.345.761.084 1.733-.49 2.038.542.319 1.077.585 1.877.8 2.4.818 1.997.581 3.989-.037 6.07-.277.934-1.352 1.41-2.154.807-.676-.507-.77-1.549-.638-2.334.185-1.087-1.398-1.015-2.045-1.068-.733-.06-.98-.413-1.4-.933a.554.554 0 00-.372-.207 1.983 1.983 0 00-.639.006c-.202.043-.313.167-.331.373-.082.929.046 2.32-.996 2.77a9.093 9.093 0 01-.67.169c-1.103.258-1.573 1.24-2.831.998-.485-.092-.907-.174-1.4-.01-1.018.34-1.669.555-2.636-.056-.205-.129-.532-.196-.75-.091-.834.402-1.353.721-2.142.472a.111.111 0 00-.091.011c-2.057 1.288-5.455 1.631-7.18-.403-.338-.398-.647-1.004-.969-1.504a.55.55 0 00-.516-.269c-.293.013-.644.062-.926-.036-.543-.19-.796-.815-1.021-1.288a.245.245 0 00-.204-.14 4.517 4.517 0 01-2.352-.885.068.068 0 00-.04-.014.072.072 0 00-.041.013l-.958.66a.155.155 0 00-.06.077c-.287.798-.605 1.656-1.484 1.586-.818-.066-1.608-1.124-2.03-1.744a1.763 1.763 0 00-.41-.435c-.993-.722-2.015-.919-2.749.27-.696 1.127-1.074 2.424-1.543 3.71-.158.433-.32.73-.485.892C2.963 39.805.68 33.931.25 32.92c-.726-1.709.16-2.982 2.01-2.896.122.006.202-.05.24-.165.25-.748-.15-2.047-.211-2.686-.23-2.36.348-5.617 2.947-6.51.48-.165 1.115-.228 1.58-.416 1.32-.536 1.997-1.705 2.868-2.634 1.599-1.707 4.406 1.075 3.486 2.861-.443.862-1.586 1.055-2.412.616a.09.09 0 00-.077-.004.084.084 0 00-.048.056l-.127.528c-.04.162.027.232.199.208 1.214-.164 2.416-.349 3.608-.554 1.1-.189 2.474-.172 3.389.73.255.25.442.326.782.31 1.757-.08 2.008-.393 3.017-1.808.11-.153.24-.285.392-.395.454-.33 1.019-.319 1.331.187.712 1.15.204 2.378-.718 3.223a.151.151 0 00-.032.042.103.103 0 00-.012.044l-.01.416c-.005.148.07.204.223.168.244-.058.191-.245.216-.432.084-.648.43-1.11.9-1.535a.115.115 0 00.036-.085c-.033-1.119-.186-2.038 1.174-2.366a.163.163 0 00.084-.05c.676-.751.924-1.063 1.942-1.35a11.202 11.202 0 001.502-.539.573.573 0 01.5.007c1.333.641.72 1.702.061 2.524-.039.048-.027.068.034.06zm-11.042 3.081c-1.095-.081-1.303-1.138-2.499-1.095-1.453.052-2.872.395-4.313.562-1.184.137-2.157-.134-1.96-1.59.108-.808.473-1.63 1.431-1.59.391.016.695.304 1.07.256 1.027-.133-.585-2.474-1.315-1.596-1.189 1.431-2.067 2.662-4.006 3.104-.97.22-1.624.408-2.2 1.31-.957 1.494-.98 3.6-.616 5.31.216 1.009.283 2.371-.815 2.899-.619.297-2.116-.19-1.544 1.16.758 1.786 1.389 3.363 2.49 4.714.088.106.153.094.195-.037a34.24 34.24 0 011.188-3.176c1.056-2.418 3.027-3.172 5.21-1.426.162.13.336.325.521.587.288.404.607.784.957 1.139a.083.083 0 00.11.006.08.08 0 00.024-.033c.289-.703.38-1.078 1.062-1.532.907-.605 1.223-1.004 2.319-.343.398.24.727.409 1.21.49 1.164.198 1.373.431 1.89 1.503a.067.067 0 00.071.038c2.003-.293 2.011 1.337 3.04 2.366 1.327 1.328 4.01.879 5.48-.05.356-.228.776-.18 1.267-.08a.162.162 0 00.096-.01c1.082-.454 1.804-.954 2.926-.264.508.312.786.204 1.366-.012a3.3 3.3 0 012.063-.109c.26.066.558.05.743-.114a3.63 3.63 0 012.033-.914c.196-.022.3-.13.314-.327.077-1.16-.07-2.623 1.396-2.936.84-.18 1.804.025 2.277.68.145.202.28.343.401.424a.163.163 0 00.094.026c1.11-.029 2.612.186 3.043 1.412.173.488.098 1.176.077 1.74-.007.176.037.312.129.41.142.15.257.064.306-.099.392-1.315.663-2.75.43-4.115-.052-.3-.181-.717-.39-1.252a23.926 23.926 0 01-.707-2.097.06.06 0 00-.064-.042c-1.166.146-2.216-.042-2.46-1.36a5.295 5.295 0 01.03-2.061 3.03 3.03 0 00.059-.597c.006-.654.274-1.335.584-1.919.362-.685.457-1.367.453-2.127-.004-.655.328-1.468 1.119-1.267 1.02.26 1.588 1.637 2.055 2.447a6.047 6.047 0 001.938 2.06c.082.053.111.032.088-.062a5.044 5.044 0 00-1.01-2.017c-.313-.385-.813-.565-1.123-.837-1.675-1.471-1.256-3.975-.978-5.903.086-.586.153-1.435-.24-1.908-.425-.512-1.232-.46-1.637-1.003-.364-.488-.26-1.359-.255-1.937a.387.387 0 00-.284-.403 2.638 2.638 0 00-1.047-.118c-.134.008-.184.078-.15.208.075.28.144.554.207.823.208.876-.333 1.299-.38 2.088-.044.756-.172 1.322-.704 1.836-.896.866-1.855 1.361-2.965 1.933-.718.37-1.129.575-1.27 1.442-.049.303-.112.6-.19.894-.27 1.017-1.532 3.151-2.843 2.104-.215-.172-.347-.475-.494-.72a.114.114 0 00-.077-.054c-.688-.133-2.063.758-2.758.997-.693.239-2.757.775-2.93-.429-.079-.558.414-1.227.794-1.638a.043.043 0 00.012-.029v-.016a.02.02 0 00-.003-.01.023.023 0 00-.008-.009.027.027 0 00-.012-.003.03.03 0 00-.013.002c-.701.27-1.616.322-2.075.969-.301.424-.707.71-1.217.854a.07.07 0 00-.037.024.065.065 0 00-.014.04c-.015.892.151 1.689-.7 2.28a.497.497 0 00-.226.425c-.025 2.088-2.955 2.239-2.893-.06.015-.518.101-.773.484-1.147.096-.094.825-1.005.618-1.106-.01-.006-.025-.005-.039.002a.096.096 0 00-.037.036c-1.016 1.654-2.285 2.12-4.172 1.98z" fill="#fff" fill-opacity=".6"/><circle cx="3.641" cy="32.466" r=".521" fill="#F3C469"/><circle cx="10.932" cy="30.382" r=".521" fill="#F3C469"/><circle cx="11.975" cy="26.216" r=".521" fill="#F3C469"/><circle cx="20.306" cy="31.424" r=".521" fill="#F3C469"/><circle cx="22.13" cy="30.122" r=".26" fill="#F3C469"/><circle cx="25.254" cy="33.247" r=".26" fill="#F3C469"/><circle cx="32.545" cy="35.33" r=".26" fill="#F3C469"/><circle cx="30.462" cy="25.956" r=".26" fill="#F3C469"/><circle cx="12.755" cy="28.039" r=".26" fill="#F3C469"/><circle cx="5.465" cy="22.831" r=".26" fill="#F3C469"/><circle cx="19.266" cy="25.174" r=".521" fill="#F3C469"/><circle cx="26.557" cy="25.174" r=".521" fill="#F3C469"/><circle cx="28.64" cy="24.133" r=".521" fill="#F3C469"/><circle cx="38.014" cy="25.174" r=".521" fill="#F3C469"/><circle cx="34.888" cy="29.341" r=".521" fill="#F3C469"/><circle cx="36.972" cy="32.466" r=".521" fill="#F3C469"/><circle cx="44.263" cy="31.424" r=".521" fill="#F3C469"/><circle cx="26.557" cy="32.466" r=".521" fill="#F3C469"/><circle cx="33.326" cy="30.903" r="1.042" fill="#F3C469"/><circle cx="40.096" cy="19.966" r=".521" fill="#F3C469"/><circle cx="42.18" cy="18.925" r=".521" fill="#F3C469"/><circle cx="40.617" cy="25.695" r="1.042" fill="#F3C469"/><circle cx="10.932" cy="18.925" r=".521" fill="#F3C469"/><circle cx="8.85" cy="26.216" r="1.562" fill="#F3C469"/></g><defs><clipPath id="clip0_313_2441"><path fill="#fff" d="M0 0h50v50H0z"/></clipPath></defs></svg>
